X: 11326
T: Eamon Coyne's
R: reel
M: 4/4
K: Gmajor
B2dB G3B|AD (3DDD dDcA|BcdB GB~B2|ADFA G3A:|
|:~B3d gfed|~^c3e agfe|f2af df~f2|fe^ce d3f|
gfed (3^cde a2-|agfe dcBA|B2dB GB~B2|ADFA G3A:|
BcdB GABG|AD (3DDD dDcD|BcdB GABG|ADFA G3A:|
|:BGBd gfed|~^c3e agfe|fAaf defd|eA^ce d3f|
gfed (3efg a2-|agfe dcBA|B2dB GABG|ADFA G3A:|

